icon-svg/top-window-open.svg

<?xml version="1.0" encoding="UTF-8"?>
<svg width="24px" height="24px" viewBox="0 0 24 24" version="1.1" fill="#44739e" xmlns="http://www.w3.org/2000/svg" xmlns:xlink="http://www.w3.org/1999/xlink">
            <path d="M 18.833594,20.569219 5.36125,17.929219 5.1065625,8.5478125 4.8226562,8.5439062 5.09,18.05 18.829687,20.792656 Z M 20.06,2.0465625 19.685625,21.72 19.878594,21.465 20.259531,2.1373438 Z M 3.3725086,6.5062543 3.15,6.93 H 16.98 L 17.19,6.38 Z M 17.6,6.93 18.88,3.48 18.28,3.5 16.98,6.93 Z M 3.15,6.93 4.76,4.15 4.39,4.17 2.74,6.93 Z M 19.03,3.08 4.58,3.86 4.39,4.17 18.88,3.48 Z M 3.21,7.44 17.94,7.62 18.95,4.81 19.149219,4.2045312 19.164844,3.3682813 17.75,7.23 2.96,7.14 Z M 3.7757813,6.504375 4.1689062,6.5009375 5.19,4.71 18.01,4.2104688 l 0.149531,-0.37 L 4.96,4.42 Z m 0.9549999,-0.2309375 0.2957813,0.00391 -0.010469,-0.84 L 4.7229685,5.96391 Z M 4.788125,7.6860938 5.09,7.6900001 V 7.8221876 L 4.788125,7.8182814 Z M 4.43,3.08 V 3.67 L 19.177813,2.8421875 19.19,2.03 Z M 4.03,4.32 4.43,3.67 V 3.08 L 3.98,3.12 Z M 19.19,2.03 18.824375,21.072188 19.51,21.21 19.87,1.99 Z M 4.5362543,8.54 19.09,8.98 V 8.28 L 4.53,7.97 Z M 4.834375,18.246094 4.52,7.69 H 4.12 L 4.41,18.16 Z M 19.49,21.91 4.434375,18.68 4.41,18.16 l 15.1,3.05 z"></path>

</svg>

<svg xmlns="http://www.w3.org/2000/svg" fill="#44739e" viewBox="0 0 24 24"><path d="m18.8336 20.5692-13.4723-2.64-.2547-9.3814-.284-.0039L5.09 18.05l13.7397 2.7427ZM20.06 2.0466 19.6856 21.72l.193-.255.381-19.3277ZM3.3725 6.5063 3.15 6.93h13.83l.21-.55ZM17.6 6.93l1.28-3.45-.6.02-1.3 3.43Zm-14.45 0 1.61-2.78-.37.02-1.65 2.76Zm15.88-3.85-14.45.78-.19.31 14.49-.69ZM3.21 7.44l14.73.18 1.01-2.81.1992-.6055.0156-.8362L17.75 7.23 2.96 7.14Zm.5658-.9356.3931-.0035L5.19 4.71l12.82-.4995.1495-.37L4.96 4.42Zm.955-.231.2958.004-.0105-.84-.2931.5265Zm.0573 1.4127L5.09 7.69v.1322l-.3019-.004ZM4.43 3.08v.59l14.7478-.8278.0122-.8122Zm-.4 1.24.4-.65v-.59l-.45.04Zm15.16-2.29-.3656 19.0422.6856.1378.36-19.22ZM4.5363 8.54l14.5537.44v-.7L4.53 7.97Zm.298 9.706L4.52 7.69h-.4l.29 10.47ZM19.49 21.91 4.4344 18.68l-.0244-.52 15.1 3.05z"/></svg>
